X: 136
T:Illegible. JaW.136
M:2/4
L:1/8
Q:1/4=50
S:James Winder Ms, Lancashire, 1835-41
R:misc.
O:England
A:Wyresdale,Lancashire
N:Key given is C in MS, but may be preferrable in FCGP
H:1/8
Z:vmp.Chris Partington, Aug 2004
K:F
"Key C as in MS"c|ffgg|{f}ed/c/ cd/e/|ffgg|{b}a2ge|!
ffgg|{f}ed/c/ cd/e/|ff {a}g/f/g/a/|f3|!
a/b/|c'c'aa|bbg2|{b}afdf|{f}eg/e/ ca/b/|!
c'c'aa|bbg2|{b}a/f/d/g/ fe|f3|]
